tenants/businesswise/icons/external_link.svg

<svg fill="none" height="24" viewBox="0 0 24 24" width="24" xmlns="http://www.w3.org/2000/svg"><path clip-rule="evenodd" d="m20.5714 9.14286h1.4286v-7.14286h-7.1429v1.42857h4.7037l-9.4908 9.49143 1.01 1.01 9.4914-9.49143zm-16.42854 12.85714h14.28574c1.2143 0 2.1428-.9286 2.1428-2.1429v-7.8571h-1.4285v7.8571c0 .4286-.2858.7143-.7143.7143h-14.28574c-.42857 0-.71429-.2857-.71429-.7143v-14.28567c0-.42857.28572-.71429.71429-.71429h7.85714v-1.42857h-7.85714c-1.21429 0-2.14286.92857-2.14286 2.14286v14.28567c0 1.2143.92857 2.1429 2.14286 2.1429z" fill="#000" fill-rule="evenodd"/></svg>

<svg width="24" height="24" viewBox="0 0 24 24" fill="none" xmlns="http://www.w3.org/2000/svg">
<path fill-rule="evenodd" clip-rule="evenodd" d="M20.5714 9.14286H22V2H14.8571V3.42857H19.5608L10.07 12.92L11.08 13.93L20.5714 4.43857V9.14286ZM4.14286 22H18.4286C19.6429 22 20.5714 21.0714 20.5714 19.8571V12H19.1429V19.8571C19.1429 20.2857 18.8571 20.5714 18.4286 20.5714H4.14286C3.71429 20.5714 3.42857 20.2857 3.42857 19.8571V5.57143C3.42857 5.14286 3.71429 4.85714 4.14286 4.85714H12V3.42857H4.14286C2.92857 3.42857 2 4.35714 2 5.57143V19.8571C2 21.0714 2.92857 22 4.14286 22Z" fill="black"/>
</svg>
